icons/svg/view-module.svg

<svg xmlns="http://www.w3.org/2000/svg" version="1.1" baseProfile="full" width="24" height="24" viewBox="0 0 24.00 24.00" xml:space="preserve"><path fill="#000" fill-opacity="1" stroke-linejoin="round" d="M16 5v6h5V5m-11 6h5V5h-5m6 13h5v-6h-5m-6 6h5v-6h-5m-6 6h5v-6H4m0-1h5V5H4v6z"/></svg>

﻿<?xml version="1.0" encoding="utf-8"?>
<!DOCTYPE svg PUBLIC "-//W3C//DTD SVG 1.1//EN" "http://www.w3.org/Graphics/SVG/1.1/DTD/svg11.dtd">
<svg xmlns="http://www.w3.org/2000/svg" xmlns:xlink="http://www.w3.org/1999/xlink" version="1.1" baseProfile="full" width="24" height="24" viewBox="0 0 24.00 24.00" enable-background="new 0 0 24.00 24.00" xml:space="preserve">
	<path fill="#000000" fill-opacity="1" stroke-linejoin="round" d="M 16,5L 16,11L 21,11L 21,5M 10,11L 15,11L 15,5L 10,5M 16,18L 21,18L 21,12L 16,12M 10,18L 15,18L 15,12L 10,12M 4,18L 9,18L 9,12L 4,12M 4,11L 9,11L 9,5L 4,5L 4,11 Z "/>
</svg>
